X: 1
T: the Jelly Roll
C: James Gray
R: reel
B: Alex & James Gray "Tweeddale Collection" v.4 #5 p.32
N: Tune for The Jelly Roll
Z: 2017 John Chambers <jc:trillian.mit.edu>
M: C|
L: 1/8
K: G
"A"[|] d2 |\
"G"G2gG BABc | "D7"dcdf "G"gdBG |\
"Am"A2aA cBcd | eaag "D7"fdcA |\
"G"G2gG BABc | "D7"dcdf "G"gdBG |
"Am"cBcd eaag | "D7" fdcA "G"G2 :|\
"C"[|] ga |\
"Em"begb "Am"acea | "D"fAdf "G"gBdg |\
"C"eGce "G"dGBd | "Am" cBAG "D"Afga |
"Em"begb "Am"acea | "D"fAdf "G"gBdg |\
"C"eGce "G"dGBd | "D7" cAGF "G"G2 |]\
"B"[|] ga |\
"Em"begb "Am"acea | "D"fAdf "G"gBdg |
"C"eGce "G"d3d | "A7"^cAGE "D7"FDEF |\
"G"G2gG BABc | "D7"dcdf "G"g2ga |\
"G"bdgb "Am"acea | "E7" fdcA "G"G2 |]
